icons/1_Primary/HackerOne.svg

<svg width="1024" height="1024" viewBox="0 0 1024 1024" fill="none" xmlns="http://www.w3.org/2000/svg">
<g clip-path="url(#clip0_2_2364)">
<path d="M512 1024C794.77 1024 1024 794.77 1024 512C1024 229.23 794.77 0 512 0C229.23 0 0 229.23 0 512C0 794.77 229.23 1024 512 1024Z" fill="#FF837D"/>
<path d="M400.81 535.61C402.132 537.226 402.866 539.243 402.89 541.33C402.89 544.477 400.323 547.397 395.19 550.09C390.057 552.784 383.81 554.137 376.45 554.15C364.83 554.15 356.127 551.084 350.34 544.95C344.553 538.817 341.65 530.697 341.63 520.59V505.42C341.63 495.42 344.533 487.33 350.34 481.15C356.147 474.97 364.793 471.877 376.28 471.87C383.533 471.87 389.617 473.133 394.53 475.66C399.44 478.18 401.9 481.03 401.9 484.17C401.837 486.258 401.104 488.27 399.81 489.91C399.285 490.757 398.56 491.461 397.698 491.962C396.837 492.462 395.866 492.743 394.87 492.78C394.31 492.78 392.33 491.93 388.92 490.25C385.405 488.541 381.539 487.674 377.63 487.72C365.343 487.72 359.203 493.637 359.21 505.47V520.56C359.21 532.393 365.407 538.31 377.8 538.31C381.785 538.363 385.721 537.433 389.26 535.6C392.66 533.8 394.69 532.89 395.38 532.89C396.437 532.874 397.482 533.113 398.428 533.586C399.373 534.06 400.19 534.754 400.81 535.61ZM457.46 503.74L479.06 484.35C479.549 483.866 479.934 483.288 480.192 482.65C480.45 482.012 480.575 481.328 480.56 480.64C480.517 479.538 480.241 478.456 479.752 477.467C479.263 476.478 478.57 475.604 477.72 474.9C476.238 473.289 474.186 472.321 472 472.2C471.314 472.189 470.634 472.319 470.001 472.583C469.368 472.846 468.796 473.236 468.32 473.73L433.32 506.1V431.1C433.305 430.242 433.056 429.405 432.6 428.679C432.143 427.953 431.497 427.365 430.73 426.98C428.777 425.849 426.545 425.291 424.29 425.37C422.111 425.264 419.951 425.826 418.1 426.98C417.386 427.405 416.795 428.008 416.385 428.731C415.975 429.453 415.759 430.269 415.76 431.1V546.9C415.76 548.37 416.57 549.71 418.19 550.96C419.961 552.246 422.113 552.898 424.3 552.81C426.558 552.872 428.779 552.225 430.65 550.96C432.44 549.71 433.33 548.37 433.33 546.9V525.83L445.56 514.71L470.17 551.29C470.68 552.066 471.374 552.702 472.191 553.142C473.008 553.582 473.922 553.812 474.85 553.81C476.97 553.81 479.15 552.81 481.38 550.81C483.61 548.81 484.74 546.81 484.74 544.81C484.706 543.734 484.359 542.691 483.74 541.81L457.46 503.74ZM246.46 473.38C244.485 472.24 242.228 471.682 239.95 471.77C237.748 471.661 235.566 472.222 233.69 473.38L209.88 488.3C208.81 489.3 208.36 490.81 208.55 492.88C208.81 495.088 209.799 497.147 211.36 498.73C212.857 500.469 214.861 501.696 217.09 502.24C219.21 502.72 220.83 502.46 221.89 501.47L231.3 495.6V548C231.3 549.48 232.12 550.83 233.77 552.08C235.552 553.384 237.723 554.047 239.93 553.96C242.213 554.015 244.457 553.358 246.35 552.08C248.16 550.83 249.06 549.48 249.06 548V477.54C249.041 476.676 248.788 475.833 248.326 475.101C247.865 474.37 247.212 473.779 246.44 473.39L246.46 473.38ZM195.23 427C193.304 425.885 191.105 425.328 188.88 425.39C186.655 425.298 184.451 425.857 182.54 427C181.8 427.42 181.183 428.028 180.751 428.761C180.32 429.495 180.088 430.329 180.08 431.18V548C180.08 549.48 180.93 550.83 182.63 552.08C184.451 553.375 186.647 554.036 188.88 553.96C191.112 554.001 193.3 553.344 195.14 552.08C196.94 550.84 197.85 549.48 197.85 548V431.14C197.823 430.279 197.566 429.441 197.105 428.712C196.644 427.984 195.997 427.393 195.23 427ZM318.11 481.27C323.63 487.523 326.397 495.31 326.41 504.63V546.9C326.377 547.741 326.137 548.56 325.712 549.286C325.286 550.012 324.688 550.621 323.97 551.06C322.173 552.282 320.032 552.899 317.86 552.82C315.824 552.878 313.827 552.259 312.18 551.06C311.481 550.608 310.903 549.994 310.493 549.269C310.084 548.545 309.857 547.732 309.83 546.9V541C302.35 549.773 293.927 554.16 284.56 554.16C278.08 554.16 272.747 552.243 268.56 548.41C264.38 544.6 262.29 539.09 262.29 531.9C262.29 522.9 265.623 516.637 272.29 513.11C278.957 509.583 288.667 507.81 301.42 507.79H308.78V504.67C308.898 499.966 307.46 495.354 304.69 491.55C301.957 487.863 297.8 486.023 292.22 486.03C287.845 485.933 283.511 486.886 279.58 488.81C277.672 489.894 275.683 490.827 273.63 491.6C272.682 491.59 271.755 491.325 270.944 490.835C270.133 490.344 269.469 489.645 269.02 488.81C267.854 486.973 267.246 484.836 267.27 482.66C267.27 479.74 269.98 477.21 275.4 475.07C280.861 472.923 286.682 471.837 292.55 471.87C304.07 471.87 312.59 474.99 318.11 481.23V481.27ZM308.81 517.61H304.63C300.52 517.555 296.41 517.779 292.33 518.28C289.225 518.7 286.282 519.92 283.79 521.82C282.567 522.738 281.586 523.94 280.931 525.321C280.276 526.703 279.967 528.223 280.03 529.75C280.03 533.35 281.03 536.06 283.03 537.92C285.193 539.833 288.014 540.834 290.9 540.71C295.133 540.71 299.177 538.91 303.03 535.31C306.89 531.7 308.8 527.9 308.8 523.84L308.81 517.61ZM738.23 472C733.387 471.89 728.617 473.201 724.51 475.77C720.839 478.019 717.832 481.205 715.8 485V477.14C715.798 476.571 715.661 476.011 715.4 475.505C715.139 474.999 714.762 474.562 714.3 474.23C713.304 473.429 712.059 473 710.78 473.02C709.411 472.965 708.06 473.354 706.93 474.13C706.455 474.456 706.069 474.896 705.807 475.41C705.545 475.923 705.415 476.494 705.43 477.07V548.39C705.448 548.969 705.591 549.537 705.85 550.055C706.109 550.573 706.478 551.029 706.93 551.39C707.995 552.314 709.372 552.796 710.78 552.74C712.183 552.76 713.547 552.281 714.63 551.39C715.122 551.053 715.531 550.607 715.824 550.087C716.117 549.567 716.287 548.986 716.32 548.39V503.69C716.32 497.303 718.32 492.143 722.32 488.21C724.123 486.348 726.281 484.867 728.667 483.856C731.053 482.844 733.618 482.322 736.21 482.32C739 482.3 741.762 482.874 744.312 484.006C746.863 485.137 749.143 486.799 751 488.88C754.947 492.801 757.177 498.127 757.2 503.69V548.43C757.179 549.061 757.322 549.686 757.617 550.244C757.912 550.801 758.347 551.272 758.88 551.61C759.944 552.391 761.23 552.811 762.55 552.81C763.931 552.828 765.283 552.408 766.41 551.61C766.942 551.267 767.377 550.792 767.671 550.231C767.966 549.671 768.11 549.043 768.09 548.41V503.58C768.16 499.468 767.411 495.383 765.886 491.563C764.362 487.743 762.092 484.264 759.21 481.33C753.263 475.11 746.27 472 738.23 472ZM559.43 502.75C559.522 505.577 559.123 508.399 558.25 511.09C557.646 512.997 556.327 514.596 554.57 515.55C553.102 516.341 551.52 516.898 549.88 517.2C547.993 517.444 546.092 517.558 544.19 517.54H508.86V521.45C508.755 524.012 509.242 526.563 510.283 528.906C511.323 531.249 512.889 533.32 514.86 534.96C518.86 538.294 524.11 539.96 530.61 539.96C535.143 539.98 539.61 538.873 543.61 536.74C547.69 534.593 550.173 533.52 551.06 533.52C552.03 533.535 552.981 533.79 553.829 534.261C554.676 534.732 555.395 535.405 555.92 536.22C557.14 537.702 557.842 539.542 557.92 541.46C557.92 544.24 555.23 547.04 549.92 549.89C544.61 552.74 537.97 554.13 530.17 554.13C518.79 554.13 509.457 551.037 502.17 544.85C494.883 538.663 491.257 530.58 491.29 520.6V504.6C491.29 495.72 494.693 488.054 501.5 481.6C504.763 478.446 508.617 475.966 512.84 474.303C517.063 472.64 521.572 471.827 526.11 471.91C534.78 471.734 543.192 474.87 549.63 480.68C552.79 483.418 555.306 486.818 557 490.64C558.694 494.462 559.524 498.611 559.43 502.79V502.75ZM542.85 501.25C542.879 499.139 542.462 497.046 541.626 495.107C540.79 493.169 539.555 491.428 538 490C536.399 488.466 534.51 487.265 532.441 486.467C530.373 485.669 528.166 485.289 525.95 485.35C521.524 485.257 517.224 486.827 513.9 489.75C512.287 491.126 511 492.844 510.135 494.78C509.271 496.716 508.848 498.82 508.9 500.94V506.26H536.7C539.153 506.26 540.797 505.927 541.63 505.26C542.45 504.61 542.85 503.27 542.85 501.29V501.25ZM791.51 516.19V522.42C791.51 529.087 793.88 534.4 798.62 538.36C803.36 542.32 809.477 544.32 816.97 544.36C820.381 544.439 823.776 543.862 826.97 542.66C829.279 541.821 831.47 540.688 833.49 539.29C834.494 538.38 835.748 537.792 837.09 537.6C837.734 537.619 838.365 537.789 838.931 538.096C839.497 538.404 839.983 538.84 840.35 539.37C841.213 540.32 841.722 541.539 841.79 542.82C841.79 545.2 839.38 547.63 834.58 550.17C829.78 552.71 823.76 554 816.62 554C806.03 554 797.37 551.07 790.68 545.15C783.99 539.23 780.63 531.52 780.63 521.96V503.07C780.599 498.98 781.415 494.928 783.028 491.169C784.64 487.41 787.014 484.026 790 481.23C795.946 475.412 803.912 472.119 812.231 472.041C820.549 471.963 828.576 475.105 834.63 480.81C837.652 483.607 840.043 487.016 841.645 490.81C843.246 494.603 844.022 498.694 843.92 502.81C844.003 505.378 843.634 507.94 842.83 510.38C842.215 512.12 840.95 513.554 839.3 514.38C837.907 515.096 836.419 515.608 834.88 515.9C833.049 516.16 831.199 516.274 829.35 516.24L791.51 516.19ZM791.51 508.08H825C828.36 508.08 830.57 507.73 831.7 506.99C832.83 506.25 833.37 504.72 833.37 502.38C833.406 496.875 831.268 491.577 827.42 487.64C825.525 485.563 823.203 483.92 820.615 482.822C818.026 481.725 815.231 481.199 812.42 481.28C809.672 481.225 806.942 481.728 804.394 482.76C801.847 483.791 799.535 485.329 797.6 487.28C795.643 489.131 794.091 491.367 793.039 493.847C791.988 496.326 791.46 498.997 791.49 501.69L791.51 508.08ZM616.86 471.87H611.48C606.932 471.86 602.503 473.327 598.86 476.05C595.17 478.639 592.2 482.125 590.23 486.18V478.68C590.231 477.841 590.017 477.016 589.607 476.284C589.197 475.552 588.606 474.938 587.89 474.5C586.214 473.384 584.232 472.818 582.22 472.88C580.062 472.792 577.926 473.353 576.09 474.49C575.357 474.901 574.747 475.499 574.32 476.223C573.893 476.946 573.665 477.77 573.66 478.61V546.9C573.66 548.37 574.46 549.71 576.09 550.96C577.867 552.249 580.027 552.901 582.22 552.81C584.474 552.869 586.691 552.223 588.56 550.96C590.35 549.73 591.24 548.38 591.24 546.96V512.44C591.24 505.16 593.28 499.22 597.36 494.62C601.43 490.02 606.16 487.72 611.49 487.72H616.87C617.779 487.706 618.673 487.483 619.483 487.069C620.293 486.654 620.996 486.059 621.54 485.33C622.867 483.766 623.578 481.771 623.54 479.72C623.589 477.688 622.876 475.712 621.54 474.18C620.984 473.468 620.275 472.89 619.464 472.49C618.654 472.09 617.764 471.878 616.86 471.87ZM682.54 481.32C685.594 484.159 688.02 487.605 689.663 491.436C691.306 495.268 692.129 499.401 692.08 503.57V521.94C692.08 530.367 688.873 537.817 682.46 544.29C676.047 550.763 668.597 554 660.11 554C651.737 554 644.37 550.773 638.01 544.32C631.65 537.867 628.47 530.417 628.47 521.97V503.58C628.579 495.228 631.949 487.25 637.861 481.349C643.773 475.449 651.758 472.093 660.11 472C664.283 471.972 668.42 472.783 672.273 474.386C676.126 475.989 679.618 478.35 682.54 481.33V481.32ZM681.2 503.63C681.186 500.875 680.623 498.15 679.545 495.614C678.467 493.078 676.895 490.782 674.92 488.86C673.048 486.792 670.762 485.141 668.211 484.014C665.659 482.888 662.899 482.31 660.11 482.32C657.341 482.3 654.6 482.873 652.071 484.001C649.542 485.129 647.285 486.786 645.45 488.86C641.556 492.792 639.365 498.097 639.35 503.63V521.89C639.327 527.552 641.516 532.999 645.45 537.07C647.271 539.167 649.524 540.844 652.055 541.987C654.585 543.129 657.333 543.711 660.11 543.69C662.922 543.716 665.708 543.139 668.278 541.997C670.849 540.855 673.144 539.175 675.01 537.07C678.99 533.021 681.214 527.567 681.2 521.89V503.63Z" fill="white"/>
</g>
<defs>
<clipPath id="clip0_2_2364">
<rect width="1024" height="1024" fill="white"/>
</clipPath>
</defs>
</svg>

<svg xmlns="http://www.w3.org/2000/svg" viewBox="0 0 1024 1024">
   <circle cx="512" cy="512" r="512" style="fill:#ec1075"/>
   <path d="M400.81 535.61a9.2 9.2 0 0 1 2.08 5.72q0 4.72-7.7 8.76t-18.74 4.06q-17.43 0-26.11-9.2t-8.71-24.36v-15.17q0-15 8.71-24.27t25.94-9.28q10.88 0 18.25 3.79c4.91 2.52 7.37 5.37 7.37 8.51a9.74 9.74 0 0 1-2.09 5.74 6.08 6.08 0 0 1-4.94 2.87c-.56 0-2.54-.85-5.95-2.53a25.14 25.14 0 0 0-11.29-2.53q-18.43 0-18.42 17.75v15.09q0 17.75 18.59 17.75a24.22 24.22 0 0 0 11.46-2.71c3.4-1.8 5.43-2.71 6.12-2.71a6.58 6.58 0 0 1 5.43 2.72Zm56.65-31.87 21.6-19.39a5.06 5.06 0 0 0 1.5-3.71 7.85 7.85 0 0 0-2.84-5.74 8.4 8.4 0 0 0-5.72-2.7 5 5 0 0 0-3.68 1.53l-35 32.37v-75a4.7 4.7 0 0 0-2.59-4.12 12 12 0 0 0-6.44-1.61 10.71 10.71 0 0 0-6.19 1.61 4.79 4.79 0 0 0-2.34 4.12v115.8c0 1.47.81 2.81 2.43 4.06a9.73 9.73 0 0 0 6.11 1.85 10.81 10.81 0 0 0 6.35-1.85c1.79-1.25 2.68-2.59 2.68-4.06v-21.07l12.23-11.12 24.61 36.58a5.59 5.59 0 0 0 4.68 2.52c2.12 0 4.3-1 6.53-3s3.36-4 3.36-6a5.52 5.52 0 0 0-1-3Zm-211-30.36a12.09 12.09 0 0 0-6.51-1.61 10.89 10.89 0 0 0-6.26 1.61l-23.81 14.92c-1.07 1-1.52 2.51-1.33 4.58a10 10 0 0 0 2.81 5.85 11 11 0 0 0 5.73 3.51c2.12.48 3.74.22 4.8-.77l9.41-5.87V548c0 1.48.82 2.83 2.47 4.08a9.78 9.78 0 0 0 6.16 1.88 11 11 0 0 0 6.42-1.88c1.81-1.25 2.71-2.6 2.71-4.08v-70.46a4.76 4.76 0 0 0-2.62-4.15ZM195.23 427a12 12 0 0 0-6.35-1.61 11.43 11.43 0 0 0-6.34 1.61 4.86 4.86 0 0 0-2.46 4.18V548c0 1.48.85 2.83 2.55 4.08a10.19 10.19 0 0 0 6.25 1.88 10.71 10.71 0 0 0 6.26-1.88c1.8-1.24 2.71-2.6 2.71-4.08V431.14a4.82 4.82 0 0 0-2.62-4.14Zm122.88 54.27q8.28 9.38 8.3 23.36v42.27a5.11 5.11 0 0 1-2.44 4.16 10.21 10.21 0 0 1-6.11 1.76 9.21 9.21 0 0 1-5.68-1.76 5.15 5.15 0 0 1-2.35-4.16V541q-11.22 13.16-25.27 13.16-9.72 0-16-5.75c-4.18-3.81-6.27-9.32-6.27-16.51q0-13.5 10-18.79t29.13-5.32h7.36v-3.12a21.38 21.38 0 0 0-4.09-13.12q-4.1-5.53-12.47-5.52a27.37 27.37 0 0 0-12.64 2.78 42.12 42.12 0 0 1-5.95 2.79 5.3 5.3 0 0 1-4.61-2.79 11.25 11.25 0 0 1-1.75-6.15q0-4.38 8.13-7.59a46.17 46.17 0 0 1 17.15-3.2q17.28 0 25.56 9.36Zm-9.3 36.34h-4.18a90.86 90.86 0 0 0-12.3.67 18.08 18.08 0 0 0-8.54 3.54 9.43 9.43 0 0 0-3.76 7.93c0 3.6 1 6.31 3 8.17a11.16 11.16 0 0 0 7.87 2.79q6.35 0 12.13-5.4c3.86-3.61 5.77-7.41 5.77-11.47ZM738.23 472a24.81 24.81 0 0 0-13.72 3.77 24.24 24.24 0 0 0-8.71 9.23v-7.86a3.6 3.6 0 0 0-1.5-2.91 5.48 5.48 0 0 0-3.52-1.21 6.35 6.35 0 0 0-3.85 1.11 3.46 3.46 0 0 0-1.5 2.94v71.32a4 4 0 0 0 1.5 3 5.54 5.54 0 0 0 3.85 1.35 5.93 5.93 0 0 0 3.85-1.35 3.9 3.9 0 0 0 1.69-3v-44.7q0-9.58 6-15.48a19.35 19.35 0 0 1 13.89-5.89 19.63 19.63 0 0 1 14.79 6.56 21 21 0 0 1 6.2 14.81v44.74a3.62 3.62 0 0 0 1.68 3.18 6.2 6.2 0 0 0 3.67 1.2 6.53 6.53 0 0 0 3.86-1.2 3.67 3.67 0 0 0 1.68-3.2v-44.83a31 31 0 0 0-8.88-22.25q-8.92-9.33-20.98-9.33Zm-178.8 30.75a24.44 24.44 0 0 1-1.18 8.34 7.73 7.73 0 0 1-3.68 4.46 16 16 0 0 1-4.69 1.65 41.31 41.31 0 0 1-5.69.34h-35.33v3.91a16.69 16.69 0 0 0 6 13.51q6 5 15.75 5a27.37 27.37 0 0 0 13-3.22q6.12-3.22 7.45-3.22a5.89 5.89 0 0 1 4.86 2.7 8.81 8.81 0 0 1 2 5.24c0 2.78-2.69 5.58-8 8.43s-11.95 4.24-19.75 4.24q-17.07 0-28-9.28t-10.88-24.25v-16q0-13.32 10.21-23a34.5 34.5 0 0 1 24.61-9.69 34.07 34.07 0 0 1 23.52 8.77 28.41 28.41 0 0 1 9.8 22.11Zm-16.58-1.5A15 15 0 0 0 538 490a16.75 16.75 0 0 0-12.05-4.65 17.68 17.68 0 0 0-12.05 4.4 14.25 14.25 0 0 0-5 11.19v5.32h27.8q3.68 0 4.93-1c.82-.65 1.22-1.99 1.22-3.97Zm248.66 14.94v6.23q0 10 7.11 15.94t18.35 6a26.65 26.65 0 0 0 10-1.7 28.66 28.66 0 0 0 6.52-3.37 6.79 6.79 0 0 1 3.6-1.69 4.11 4.11 0 0 1 3.26 1.77 5.57 5.57 0 0 1 1.44 3.45c0 2.38-2.41 4.81-7.21 7.35S823.76 554 816.62 554c-10.59 0-19.25-2.93-25.94-8.85s-10.05-13.63-10.05-23.19v-18.89a29.61 29.61 0 0 1 9.37-21.84 32.22 32.22 0 0 1 44.63-.42 29 29 0 0 1 9.29 22 21.92 21.92 0 0 1-1.09 7.57 7.13 7.13 0 0 1-3.53 4 16.32 16.32 0 0 1-4.42 1.52 34.8 34.8 0 0 1-5.53.34Zm0-8.11H825c3.36 0 5.57-.35 6.7-1.09s1.67-2.27 1.67-4.61a20.89 20.89 0 0 0-5.95-14.74 19.54 19.54 0 0 0-15-6.36 20.3 20.3 0 0 0-14.82 6 19.54 19.54 0 0 0-6.11 14.41Zm-174.65-36.21h-5.38a21 21 0 0 0-12.62 4.18 26.54 26.54 0 0 0-8.63 10.13v-7.5a4.89 4.89 0 0 0-2.34-4.18 9.69 9.69 0 0 0-5.67-1.62 10.8 10.8 0 0 0-6.13 1.61 4.76 4.76 0 0 0-2.43 4.12v68.29c0 1.47.8 2.81 2.43 4.06a9.75 9.75 0 0 0 6.13 1.85 10.82 10.82 0 0 0 6.34-1.85c1.79-1.23 2.68-2.58 2.68-4v-34.52q0-10.92 6.12-17.82c4.07-4.6 8.8-6.9 14.13-6.9h5.38a5.94 5.94 0 0 0 4.67-2.39 8.43 8.43 0 0 0 2-5.61 8.13 8.13 0 0 0-2-5.54 6 6 0 0 0-4.68-2.31Zm65.68 9.45a29.9 29.9 0 0 1 9.54 22.25v18.37q0 12.64-9.62 22.35T660.11 554q-12.56 0-22.1-9.68t-9.54-22.35v-18.39A32 32 0 0 1 660.11 472a31.12 31.12 0 0 1 22.43 9.33Zm-1.34 22.31a20.76 20.76 0 0 0-6.28-14.77 19.88 19.88 0 0 0-14.81-6.54 19.38 19.38 0 0 0-14.66 6.54 21.07 21.07 0 0 0-6.1 14.77v18.26a21.72 21.72 0 0 0 6.1 15.18 19.23 19.23 0 0 0 14.66 6.62 19.67 19.67 0 0 0 14.9-6.62 21.58 21.58 0 0 0 6.19-15.18Z" style="fill:#fff"/>
</svg>
